X: 43160
T: Winter Night Schottische, The
R: barndance
M: 4/4
K: Cmajor
g2- g3/2a/4b/4|c'2 e2 g2 c>d|e>dc>A G2- G>E|G>AB>c d>ef>g|a2 g>^f g2- g3/2a/4b/4|
c'2 e2 g2 c>d|e>dcA G2- G>E|G>AB>c d>ef>d|e2 c2 c2 a2||
|:A2 A>^G A>Bc>d|e>fe>^d e2 a2|e2 a2 e2 d>e|c>dB>c A>GE>G|
[E2A2]- [EA]>^G A>Bc>d|e>fe>^d e2 a2|e2 d>e c>dB>c|1 A4 [E2A4]:|2 A4 g2- g3/2a/4b/4||
c'2 e2 g2 c>d|e>dc>A G2- G>E|G>AB>c d>ef>g|a2 g>^f g2- g3/2a/4b/4|
c'2 e2 g2 c>d|e>dc>A G2- G>E|G>AB>c d>ef>d|e2 c2 c2- c>e||
K: FMaj
|:"trio"f2 f>a c>fA>c|F>Ac>f a2 a>f|g2 g>b e>gc>e|G>ce>g b2 b>e|
f2 f>a c>fA>c|F>Ac>f a2 a>f|e>fg>a b>cd>e|1 f2 f2 f2- f>c:|2 f2 f2 (f>g ^g3/2)a/4b/4||
K: CMaj
c'2 e2 g2 c>d|e>dc>A G2- G>E|G>AB>c d>ef>g|a2 g>^f g2- g3/2a/4b/4|
c'2 e2 g2 c>d|e>dc>A G2- G>E|G>AB>c d>ef>d|e2 c2 c2 a2||
|:[E2A2]- [EA]>^G A>Bc>d|e>fe>^d e2 a2|e2 a2 e2 d2|c>dB>c A>GE>G|
[E2A2]- [EA]>^G A>Bc>d|e>fe>^d e2 a2|e2 d>e c>dB>c|1 A4 [E4A4]:|2 A4 g2- g3/2a/4b/4||
c'2 e2 g2 c>d|e>dc>A G2- G>E|G>AB>c d>ef>g|a2 g>^f g2- g3/2a/4b/4|
c'2 e2 g2 c>d|e>dc>A G2- G>E|G>AB>c d>ef>d|e2 c2 c2- c>e||
K: FMaj
|:"trio"f2 f>a c>fA>c|F>Ac>f a2 a>f|g2 g>b e>gc<e|G>ce>g b2 b>e|
f2 f>a c>fA>c|F>Ac>f a2 a>f|e>fg>a b>cd>e|1 f2 f2 f2- f>c:|2 f2 f2 (f>g ^g3/2)a/4b/4||
K: CMaj
c'2 e2 g2 c>d|e>dc>A G2- G>E|G>AB>c d>ef>g|a2 g>^f g2- g3/2a/4b/4|
c'2 e2 g2 c>d|e>dcA G2- G>E|G>AB>c d>ef>d|e2 c2 [G4c4]||

